**kern
*clefG2
*k[f#c#g#]
*M4/4
=1-
4a 4fn 4d
16a
16a
4b
16a
8g# 8e
8a
16b
=2
1a
=3
2g#
2a
=4
1b
=5
2a
(8a
4.b)
=6
8b
16b
4a
2gn
16r
=7
16a
2b-
4b-
8r
16b-
=8
4cc-
8ccn
4cc 4a
8b
4a 4f# 4d
=9
1a
=10
16a
4g#
2g-
16f#
16g-
16f# 16d- 16B#
=11
*-